X: 1
T: Boda Mattes Polska
%: (Bond Polska fr\aan Viksta)
C: Trad.
R: bond-polska
S: http://www.nyckelharpa.org/archive/written-music/american-allspel-list/ 2022/9/16
Z: 2022 John Chambers <jc:trillian.mit.edu>
M: 3/4
L: 1/8
Q: 1/4=108
K: C
|:\
(g>e) (c<g) e>c | (G>B) d2 d>d | (f>d) (B<f) d>B | (G>c) e2 e>e ||\
(g>e) (c<g) e>c | (G>B) d2 d>d | (f>d) (B<f) d>B |[1 (B<c) c4 :|[2 (B<c) c3 (G ||
|:\
E>G) c2 c>c | (c<B) B4 | (B>A) F2 F>A | cB/A/ G3 (F ||\
E>G) c2 c>c | (B<c) d4 | (f>d) (B<f) d>B | (B<c) c4 :|
P: Common variations for measures 2, 4, and 6:
(G>B) d2 d2 | y2 | G>c e2 e2 |
P: A common variation for measure 3-4 of the B-part:
| (B>A) (F<A) c>A | (A>G) G3 F- |
